;FLAVOR:Marlin
;TIME:1194
;Filament used: 0.577736m
;Layer height: 0.2
;MINX:106.2
;MINY:99.076
;MINZ:0.2
;MAXX:115.045
;MAXY:120.925
;MAXZ:20
;Generated with Cura_SteamEngine 4.4.1
M82 ;absolute extrusion mode
M201 X500.00 Y500.00 Z100.00 E5000.00 ;Setup machine max acceleration
M203 X500.00 Y500.00 Z10.00 E50.00 ;Setup machine max feedrate
M204 P500.00 R1000.00 T500.00 ;Setup Print/Retract/Travel acceleration
M205 X8.00 Y8.00 Z0.40 E5.00 ;Setup Jerk
M220 S100 ;Reset Feedrate
M221 S100 ;Reset Flowrate

;*** Start Preheating ***
M140 S60 ; start preheating the bed
M104 S205 ﻿T0 ; start preheating hotend
G28 ; home
M190 S60 ; heat to Cura Bed setting 
M109 S205 ﻿T0 ; heat to Cura Hotend
;*** End Preheating ***

G28 ;Home

G92 E0 ;Reset Extruder
G1 Z2.0 F3000 ;Move Z Axis up
G1 X10.1 Y20 Z0.28 F5000.0 ;Move to start position
G1 X10.1 Y200.0 Z0.28 F1500.0 E15 ;Draw the first line
G1 X10.4 Y200.0 Z0.28 F5000.0 ;Move to side a little
G1 X10.4 Y20 Z0.28 F1500.0 E30 ;Draw the second line
G92 E0 ;Reset Extruder
G1 Z2.0 F3000 ;Move Z Axis up

​
;*** Single Start Tone
M300 S1000 P500 ; chirp to indicate starting to print
;*** End Single Start Tone
G92 E0
G92 E0
G1 F1500 E-6
;LAYER_COUNT:100
;LAYER:0
M107
M204 S500
M205 X20 Y20
G0 F7500 X110.7 Y109.567 Z0.2
;TYPE:SKIRT
G1 F1500 E0
G1 X110.747 Y109.768 E0.00687
G1 X110.78 Y109.88 E0.01075
G1 X110.7 Y110.152 E0.02018
G1 X110.7 Y109.639 E0.03724
G0 F1350 X110.7 Y109.567
G0 F7500 X111.084 Y109.455
G1 F1500 X111.131 Y109.654 E0.04404
G1 X111.198 Y109.878 E0.05182
G1 X110.86 Y111.024 E0.09156
G1 X110.791 Y111.397 E0.10417
G1 X110.802 Y111.776 E0.11679
G1 X110.855 Y112.006 E0.12464
G1 X110.679 Y112.737 E0.14964
G1 X110.63 Y113.113 E0.16226
G1 X110.66 Y113.491 E0.17487
G1 X110.677 Y113.556 E0.1771
G1 X110.66 Y113.634 E0.17976
G1 X110.661 Y114.013 E0.19236
G1 X110.738 Y114.376 E0.2047
G1 X110.749 Y114.41 E0.20589
G1 X110.738 Y114.486 E0.20845
G1 X110.724 Y114.877 E0.22146
G1 X110.754 Y115.305 E0.23573
G1 X110.534 Y115.227 E0.24349
G1 X110.3 Y115.191 E0.25137
G1 X110.3 Y104.808 E0.59671
G1 X110.371 Y104.804 E0.59907
G1 X110.737 Y104.705 E0.61168
G1 X110.872 Y104.636 E0.61673
G1 X110.87 Y104.746 E0.62039
G1 X110.806 Y105.066 E0.63124
G1 X110.771 Y105.443 E0.64383
G1 X110.84 Y105.858 E0.65783
G1 X110.773 Y106.198 E0.66935
G1 X110.78 Y106.577 E0.68196
G1 X110.805 Y106.691 E0.68584
G1 X110.729 Y107.048 E0.69798
G1 X110.747 Y107.55 E0.71469
G1 X110.945 Y108.667 E0.75242
G0 F1350 X111.084 Y109.455
G0 F7500 X111.477 Y109.385
G1 F1500 X111.514 Y109.54 E0.75772
G1 X111.615 Y109.879 E0.76948
G1 X111.243 Y111.138 E0.81315
G1 X111.188 Y111.467 E0.82424
G1 X111.212 Y111.8 E0.83535
G1 X111.255 Y111.968 E0.84112
G1 X111.267 Y112.005 E0.84241
G1 X111.068 Y112.831 E0.87067
G1 X111.029 Y113.163 E0.88179
G1 X111.089 Y113.537 E0.89438
G1 X111.054 Y113.715 E0.90042
G1 X111.069 Y114.049 E0.91154
G1 X111.119 Y114.253 E0.91852
G1 X111.159 Y114.376 E0.92283
G1 X111.134 Y114.544 E0.92848
G1 X111.123 Y114.848 E0.93859
G1 X111.214 Y116.13 E0.98134
G1 X111.129 Y116.015 E0.9861
G1 X110.872 Y115.801 E0.99722
G1 X110.572 Y115.655 E1.00832
G1 X110.21 Y115.58 E1.02061
G1 X109.9 Y115.558 E1.03095
G1 X109.9 Y104.419 E1.40143
G1 X110.013 Y104.425 E1.4052
G1 X110.347 Y104.403 E1.41633
G1 X110.665 Y104.302 E1.42743
G1 X110.951 Y104.128 E1.43856
G1 X111.187 Y103.892 E1.44966
G1 X111.284 Y103.729 E1.45597
G1 X111.27 Y104.787 E1.49116
G1 X111.198 Y105.144 E1.50328
G1 X111.172 Y105.477 E1.51439
G1 X111.24 Y105.856 E1.52719
G1 X111.248 Y105.88 E1.52803
G1 X111.228 Y105.944 E1.53026
G1 X111.168 Y106.272 E1.54135
G1 X111.188 Y106.606 E1.55248
G1 X111.216 Y106.716 E1.55626
G1 X111.188 Y106.802 E1.55927
G1 X111.123 Y107.13 E1.57039
G1 X111.14 Y107.48 E1.58204
G1 X111.338 Y108.597 E1.61977
G0 F1350 X111.477 Y109.385
G0 F7500 X111.871 Y109.315
G1 F1500 X111.897 Y109.426 E1.62357
G1 X112.032 Y109.88 E1.63932
G1 X111.627 Y111.251 E1.68687
G1 X111.586 Y111.53 E1.69625
G1 X111.635 Y111.844 E1.70682
G1 X111.683 Y111.99 E1.71193
G1 X111.457 Y112.925 E1.74392
G1 X111.43 Y113.205 E1.75328
G1 X111.478 Y113.47 E1.76224
G1 X111.496 Y113.526 E1.76419
G1 X111.45 Y113.788 E1.77304
G1 X111.499 Y114.129 E1.7845
G1 X111.569 Y114.342 E1.79195
G1 X111.53 Y114.603 E1.80073
G1 X111.522 Y114.82 E1.80795
G1 X111.649 Y116.606 E1.86751
G1 X111.695 Y116.844 E1.87557
G1 X111.717 Y116.913 E1.87798
G1 X111.623 Y117.143 E1.88624
G1 X111.467 Y117.257 E1.89267
G1 X111.317 Y117.257 E1.89766
G1 X111.21 Y117.179 E1.90206
G1 X111.073 Y116.701 E1.9186
G1 X110.958 Y116.444 E1.92796
G1 X110.775 Y116.229 E1.93735
G1 X110.54 Y116.073 E1.94674
G1 X110.182 Y115.979 E1.95905
G1 X109.5 Y115.931 E1.98179
G1 X109.5 Y103.998 E2.37868
G1 X110.034 Y104.026 E2.39647
G1 X110.315 Y104 E2.40585
G1 X110.578 Y103.898 E2.41523
G1 X110.801 Y103.726 E2.4246
G1 X111.006 Y103.419 E2.43688
G1 X111.159 Y103.061 E2.44983
G1 X111.32 Y102.943 E2.45647
G1 X111.47 Y102.943 E2.46146
G1 X111.592 Y103.032 E2.46648
G1 X111.689 Y103.328 E2.47684
G1 X111.669 Y104.834 E2.52693
G1 X111.591 Y105.223 E2.54013
G1 X111.575 Y105.505 E2.54952
G1 X111.621 Y105.731 E2.55719
G1 X111.668 Y105.874 E2.5622
G1 X111.61 Y106.062 E2.56874
G1 X111.566 Y106.34 E2.57811
G1 X111.615 Y106.666 E2.58907
G1 X111.634 Y106.724 E2.5911
G1 X111.568 Y106.926 E2.59817
G1 X111.52 Y107.204 E2.60755
G1 X111.534 Y107.41 E2.61442
G1 X111.732 Y108.527 E2.65215
G0 F1350 X111.871 Y109.315
G0 F7500 X112.265 Y109.246
G1 F1500 X112.281 Y109.312 E2.65441
G1 X112.449 Y109.879 E2.67408
G1 X112.011 Y111.364 E2.72557
G1 X111.988 Y111.581 E2.73283
G1 X112.016 Y111.72 E2.73755
G1 X112.098 Y111.972 E2.74636
G1 X111.846 Y113.018 E2.78215
G1 X111.834 Y113.236 E2.78941
G1 X111.859 Y113.345 E2.79313
G1 X111.916 Y113.52 E2.79925
G1 X111.879 Y113.634 E2.80323
G1 X111.851 Y113.85 E2.81048
G1 X111.879 Y114.005 E2.81572
G1 X111.977 Y114.307 E2.82628
G1 X111.925 Y114.661 E2.83818
G1 X111.921 Y114.792 E2.84254
G1 X112.048 Y116.578 E2.90209
G1 X112.075 Y116.721 E2.90693
G1 X112.143 Y116.93 E2.91424
G1 X111.949 Y117.4 E2.93115
G1 X111.597 Y117.657 E2.94565
G1 X111.187 Y117.657 E2.95928
G1 X110.864 Y117.422 E2.97257
G1 X110.689 Y116.811 E2.99371
G1 X110.591 Y116.616 E3.00097
G1 X110.431 Y116.469 E3.00819
G1 X110.154 Y116.378 E3.01789
G1 X109.259 Y116.315 E3.04773
G1 X109.1 Y116.199 E3.05428
G1 X109.1 Y103.706 E3.4698
G1 X109.266 Y103.585 E3.47663
G1 X110.055 Y103.626 E3.50291
G1 X110.271 Y103.598 E3.51015
G1 X110.463 Y103.494 E3.51741
G1 X110.638 Y103.262 E3.52708
G1 X110.834 Y102.802 E3.54371
G1 X111.19 Y102.543 E3.55835
G1 X111.6 Y102.543 E3.57199
G1 X111.933 Y102.786 E3.5857
G1 X112.09 Y103.265 E3.60247
G1 X112.069 Y104.875 E3.65602
G1 X111.983 Y105.302 E3.67051
G1 X112.001 Y105.607 E3.68067
G1 X112.088 Y105.872 E3.68995
G1 X111.993 Y106.179 E3.70063
G1 X111.967 Y106.396 E3.7079
G1 X111.996 Y106.542 E3.71285
G1 X112.055 Y106.724 E3.71922
G1 X111.949 Y107.05 E3.73062
G1 X111.928 Y107.341 E3.74032
G1 X112.126 Y108.458 E3.77805
G0 F1350 X112.265 Y109.246
G0 F7500 X112.659 Y109.176
G1 F1500 X112.664 Y109.198 E3.7788
G1 X112.866 Y109.878 E3.8024
G1 X112.394 Y111.477 E3.85785
G1 X112.396 Y111.596 E3.86181
G1 X112.514 Y111.957 E3.87444
G1 X112.235 Y113.112 E3.91396
G1 X112.239 Y113.221 E3.91759
G1 X112.337 Y113.52 E3.92805
G1 X112.26 Y113.757 E3.93634
G1 X112.26 Y113.881 E3.94047
G1 X112.387 Y114.272 E3.95414
G1 X112.321 Y114.72 E3.9692
G1 X112.32 Y114.763 E3.97063
G1 X112.447 Y116.549 E4.03018
G1 X112.456 Y116.597 E4.03181
G1 X112.569 Y116.945 E4.04398
G1 X112.277 Y117.656 E4.06954
G1 X111.726 Y118.057 E4.09221
G1 X111.058 Y118.057 E4.11443
G1 X110.517 Y117.663 E4.13669
G1 X110.304 Y116.922 E4.16233
G1 X110.234 Y116.819 E4.16647
G1 X110.126 Y116.777 E4.17033
G1 X109.117 Y116.706 E4.20397
G1 X108.7 Y116.402 E4.22113
G1 X108.7 Y103.503 E4.65016
G1 X109.146 Y103.179 E4.66849
G1 X110.076 Y103.227 E4.69946
G1 X110.196 Y103.194 E4.7036
G1 X110.27 Y103.105 E4.70745
G1 X110.509 Y102.545 E4.7277
G1 X111.061 Y102.143 E4.75042
G1 X111.729 Y102.143 E4.77263
G1 X112.273 Y102.539 E4.79501
G1 X112.491 Y103.205 E4.81832
G1 X112.468 Y104.917 E4.87527
G1 X112.375 Y105.381 E4.89101
G1 X112.381 Y105.482 E4.89437
G1 X112.507 Y105.868 E4.90788
G1 X112.375 Y106.297 E4.92281
G1 X112.376 Y106.418 E4.92683
G1 X112.476 Y106.724 E4.93754
G1 X112.329 Y107.174 E4.95328
G1 X112.322 Y107.271 E4.95652
G1 X112.52 Y108.388 E4.99425
G0 F1350 X112.659 Y109.176
G1 F1500 E-1.00575
;MESH:test_rail.stl
G0 F7500 X106.6 Y100.6
;TYPE:WALL-INNER
G1 F1500 E4.99425
G1 X107.4 Y100.6 E5.02086
G1 X107.4 Y119.4 E5.64615
G1 X106.6 Y119.4 E5.67276
G1 X106.6 Y101.4 E6.27144
G0 F1350 X106.6 Y100.6
G0 F7500 X106.2 Y100.2
;TYPE:WALL-OUTER
G1 F1500 X107.8 Y100.2 E6.32199
G1 X107.8 Y119.8 E6.9413
G1 X106.2 Y119.8 E6.99185
G1 X106.2 Y101 E7.58588
G0 F1350 X106.2 Y100.2
G0 F7500 X106.6 Y100.2
G0 X106.64 Y100.64
G0 X106.774 Y100.834
;TYPE:SKIN
G1 F1500 X107.224 Y101.285 E7.59647
G0 F7500 X107.11 Y100.888
G1 F1500 X106.999 Y101.342 E7.61392
G1 X106.999 Y117.58 E8.22021
G0 F1350 X106.999 Y118.878
G0 F7500 X107.062 Y119.224
M104 S205
G1 F1500 X106.774 Y118.936 E8.22698
G1 F1500 E2.22698
;MESH:NONMESH
G0 F300 X106.774 Y118.936 Z0.4
G0 F7500 X108.7 Y103.323
;TIME_ELAPSED:16.804491
;LAYER:1
M140 S60
M106 S255
;TYPE:SUPPORT
G1 F1500 E8.22698
G1 F788.3 X109.088 Y103.04 E8.24295
G1 X110.161 Y103.106 E8.27871
G1 X110.474 Y102.372 E8.30525
G1 X111.017 Y101.976 E8.3276
G1 X111.675 Y101.976 E8.34949
G1 X112.205 Y102.363 E8.37131
G1 X112.463 Y103.334 E8.40473
G1 X112.371 Y103.615 E8.41456
G1 X112.493 Y103.989 E8.42765
G1 X112.383 Y104.543 E8.44643
G1 X112.524 Y106.295 E8.50489
G1 X112.339 Y106.863 E8.52476
G1 X112.424 Y107.125 E8.53392
G1 X112.288 Y107.543 E8.54854
G1 X112.418 Y107.943 E8.56253
G1 X112.317 Y108.255 E8.57344
G1 X112.684 Y109.882 E8.62891
G1 X112.347 Y111.213 E8.67458
G1 X112.467 Y111.58 E8.68742
G1 X112.305 Y112.078 E8.70484
G1 X112.393 Y112.348 E8.71429
G1 X112.24 Y112.817 E8.73069
G1 X112.341 Y113.128 E8.74157
G1 X112.239 Y113.442 E8.75255
G1 X112.377 Y113.867 E8.76741
G1 X112.276 Y114.179 E8.77832
G1 X112.411 Y114.595 E8.79287
G1 X112.276 Y115.011 E8.80741
G1 X112.404 Y115.404 E8.82116
G1 X112.396 Y116.268 E8.8499
G1 X112.549 Y117.154 E8.8798
G1 X112.34 Y117.795 E8.90223
G1 X111.805 Y118.185 E8.92425
G1 X111.158 Y118.185 E8.94577
G1 X110.454 Y117.54 E8.97752
G1 X110.131 Y116.887 E9.00175
G1 X109.155 Y116.887 E9.03422
G1 X108.7 Y116.556 E9.05293
G1 X108.7 Y104.123 E9.46645
G0 F709.5 X108.7 Y103.323
G1 F1500 E3.46645
;MESH:test_rail.stl
G0 F8250 X107.4 Y119.4
;TYPE:WALL-INNER
G1 F1500 E9.46645
G1 F1182.5 X106.6 Y119.4 E9.49306
G1 X106.6 Y100.6 E10.11835
G1 X107.4 Y100.6 E10.14496
G1 X107.4 Y118.6 E10.74364
G0 F1064.2 X107.4 Y119.4
G0 F8250 X107.8 Y119.8
;TYPE:WALL-OUTER
G1 F788.3 X106.2 Y119.8 E10.7942
G1 X106.2 Y100.2 E11.4135
G1 X107.8 Y100.2 E11.46406
G1 X107.8 Y119 E12.05808
G0 F709.5 X107.8 Y119.8
G0 F8250 X107.4 Y119.8
G0 X107.36 Y119.36
G0 X107.049 Y119.224
;TYPE:SKIN
G1 F788.3 X107.224 Y119.049 E12.0622
G0 F8250 X106.999 Y118.991
G1 F788.3 X106.999 Y118.708 E12.07287
G1 X106.999 Y102.254 E12.69358
G0 F709.5 X106.999 Y101.171
G0 X106.944 Y100.944
G0 F8250 X106.775 Y100.831
G1 F788.3 X106.831 Y100.775 E12.69489
G1 F1500 E6.69489
;MESH:NONMESH
G0 F300 X106.831 Y100.775 Z0.6
G0 F8250 X108.7 Y103.154
;TIME_ELAPSED:28.084227
;LAYER:2
;TYPE:SUPPORT
G1 F1500 E12.69489
G1 F769.9 X109.142 Y102.833 E12.71306
G1 X110.187 Y102.877 E12.74785
G1 X110.393 Y102.245 E12.76996
G1 X110.92 Y101.862 E12.79163
G1 X111.566 Y101.862 E12.81311
G1 X112.099 Y102.249 E12.83502
G1 X112.429 Y103.077 E12.86467
G1 X112.342 Y104.677 E12.91796
G1 X112.371 Y106.216 E12.96916
G1 X112.289 Y107.828 E13.02284
G1 X112.833 Y109.892 E13.09384
G1 X112.337 Y111.524 E13.15057
G1 X112.473 Y111.942 E13.16519
G1 X112.185 Y113.163 E13.20691
G1 X112.302 Y113.52 E13.21941
G1 X112.205 Y113.817 E13.2298
G1 X112.353 Y114.272 E13.24571
G1 X112.279 Y114.732 E13.26121
G1 X112.46 Y116.365 E13.31586
G1 X112.48 Y117.309 E13.34726
G1 X112.271 Y117.953 E13.36978
G1 X111.743 Y118.337 E13.3915
G1 X111.101 Y118.337 E13.41285
G1 X110.466 Y117.834 E13.43979
G1 X110.2 Y117.015 E13.46843
G1 X109.241 Y117.015 E13.50033
G1 X108.7 Y116.622 E13.52257
G1 X108.7 Y103.954 E13.94391
G0 F692.9 X108.7 Y103.154
G1 F1500 E7.94391
;MESH:test_rail.stl
G0 F9000 X107.4 Y119.4
;TYPE:WALL-INNER
G1 F1500 E13.94391
G1 F1539.7 X106.6 Y119.4 E13.97052
G1 X106.6 Y100.6 E14.59581
G1 X107.4 Y100.6 E14.62242
G1 X107.4 Y118.6 E15.2211
G0 F1385.8 X107.4 Y119.4
G0 F9000 X107.8 Y119.8
;TYPE:WALL-OUTER
G1 F769.9 X106.2 Y119.8 E15.27165
G1 X106.2 Y100.2 E15.89096
G1 X107.8 Y100.2 E15.94151
G1 X107.8 Y119 E16.53554
G0 F692.9 X107.8 Y119.8
G0 F9000 X107.4 Y119.8
G0 X107.36 Y119.36
G0 X106.999 Y118.878
;TYPE:SKIN
G1 F769.9 X106.999 Y118.596 E16.54638
G1 X106.999 Y102.17 E17.17768
G0 F692.9 X106.999 Y101.059
G0 X107.11 Y100.888
G1 F1500 E11.17768
G0 F9000 X106.774 Y118.936
G1 F1500 E17.17768
G1 F769.9 X107.062 Y119.224 E17.18445
G1 F1500 E11.18445
;MESH:NONMESH
G0 F300 X107.062 Y119.224 Z0.8
G0 F9000 X108.7 Y103.104
;TIME_ELAPSED:40.099346
;LAYER:3
;TYPE:SUPPORT
G1 F1500 E17.18445
G1 F757.8 X109.243 Y102.709 E17.20679
G1 X110.235 Y102.72 E17.23978
G1 X110.447 Y102.069 E17.26256
G1 X110.965 Y101.692 E17.28386
G1 X111.601 Y101.692 E17.30502
G1 X112.126 Y102.074 E17.32661
G1 X112.425 Y102.804 E17.35285
G1 X112.333 Y103.614 E17.37996
G1 X112.453 Y103.982 E17.39284
G1 X112.338 Y104.541 E17.41182
G1 X112.489 Y106.295 E17.47037
G1 X112.305 Y106.862 E17.4902
G1 X112.39 Y107.123 E17.49933
G1 X112.253 Y107.543 E17.51402
G1 X112.384 Y107.944 E17.52805
G1 X112.279 Y108.264 E17.53926
G1 X112.649 Y109.892 E17.59478
G1 X112.31 Y111.201 E17.63976
G1 X112.428 Y111.563 E17.65242
G1 X112.266 Y112.066 E17.67
G1 X112.355 Y112.34 E17.67958
G1 X112.202 Y112.808 E17.69596
G1 X112.306 Y113.126 E17.70708
G1 X112.204 Y113.438 E17.718
G1 X112.345 Y113.869 E17.73309
G1 X112.244 Y114.179 E17.74393
G1 X112.381 Y114.599 E17.75862
G1 X112.242 Y115.024 E17.7735
G1 X112.365 Y115.402 E17.78672
G1 X112.345 Y116.302 E17.81666
G1 X112.496 Y116.762 E17.83276
G1 X112.264 Y117.915 E17.87188
G1 X111.615 Y118.438 E17.8996
G1 X110.983 Y118.438 E17.92062
G1 X110.465 Y118.061 E17.94193
G1 X110.267 Y117.455 E17.96313
G1 X110.411 Y117.017 E17.97847
G1 X109.151 Y117.136 E18.02056
G1 X108.7 Y116.807 E18.03913
G1 X108.7 Y103.904 E18.46829
G0 F682 X108.7 Y103.104
G1 F1500 E12.46829
;MESH:test_rail.stl
G0 F9000 X106.6 Y119.4
;TYPE:WALL-INNER
G1 F1500 E18.46829
G1 F1515.6 X106.6 Y100.6 E19.09358
G1 X107.4 Y100.6 E19.12019
G1 X107.4 Y119.4 E19.74548
G0 F1364 X106.6 Y119.4
G0 F9000 X106.2 Y119.8
;TYPE:WALL-OUTER
G1 F757.8 X106.2 Y100.2 E20.36478
G1 X107.8 Y100.2 E20.41533
G1 X107.8 Y119.8 E21.03464
G1 X107 Y119.8 E21.05992
G0 F682 X106.2 Y119.8
G0 F9000 X106.2 Y119.4
G0 X106.64 Y119.36
G0 X106.775 Y119.216
;TYPE:SKIN
G1 F757.8 X107.224 Y118.767 E21.07048
G0 F9000 X107.136 Y119.136
G1 F757.8 X106.999 Y118.708 E21.08717
G1 X106.999 Y102.254 E21.69823
G0 F682 X106.999 Y101.171
G0 X106.944 Y100.944
G0 F9000 X106.775 Y100.831
G1 F757.8 X106.831 Y100.775 E21.69954
G1 F1500 E15.69954
;MESH:NONMESH
G0 F300 X106.831 Y100.775 Z1
G0 F9000 X108.7 Y102.906
;TIME_ELAPSED:51.414311
;LAYER:4
;TYPE:SUPPORT
G1 F1500 E21.69954
G1 F745.9 X109.2 Y102.542 E21.72011
G1 X110.223 Y102.606 E21.75421
G1 X110.564 Y101.974 E21.77809
G1 X111.089 Y101.592 E21.79969
G1 X111.715 Y101.592 E21.82051
G1 X112.224 Y101.962 E21.84144
G1 X112.423 Y102.573 E21.86281
G1 X112.304 Y103.262 E21.88606
G1 X112.421 Y103.623 E21.89869
G1 X112.3 Y103.995 E21.9117
G1 X112.412 Y104.34 E21.92376
G1 X112.283 Y105.426 E21.96014
G1 X112.428 Y105.874 E21.9758
G1 X112.283 Y106.348 E21.99228
G1 X112.406 Y106.723 E22.00541
G1 X112.245 Y107.217 E22.02269
G1 X112.588 Y109.233 E22.09071
G1 X112.793 Y109.918 E22.11449
G1 X112.555 Y110.649 E22.14006
G1 X112.324 Y110.91 E22.15165
G1 X112.438 Y111.907 E22.18503
G1 X112.15 Y113.157 E22.22769
G1 X112.268 Y113.521 E22.24042
G1 X112.171 Y113.818 E22.25081
G1 X112.318 Y114.27 E22.26662
G1 X112.238 Y114.713 E22.28159
G1 X112.422 Y116.339 E22.33602
G1 X112.333 Y116.708 E22.34864
