;FLAVOR:Marlin
;TIME:219
;Filament used: 0.088177m
;Layer height: 0.2
;MINX:105.2
;MINY:105.2
;MINZ:0.2
;MAXX:114.8
;MAXY:114.8
;MAXZ:3
;Generated with Cura_SteamEngine 4.4.1
M82 ;absolute extrusion mode
M201 X500.00 Y500.00 Z100.00 E5000.00 ;Setup machine max acceleration
M203 X500.00 Y500.00 Z10.00 E50.00 ;Setup machine max feedrate
M204 P500.00 R1000.00 T500.00 ;Setup Print/Retract/Travel acceleration
M205 X8.00 Y8.00 Z0.40 E5.00 ;Setup Jerk
M220 S100 ;Reset Feedrate
M221 S100 ;Reset Flowrate

;*** Start Preheating ***
M140 S60 ; start preheating the bed
M104 S205 ﻿T0 ; start preheating hotend
G28 ; home
M190 S60 ; heat to Cura Bed setting
M109 S205 ﻿T0 ; heat to Cura Hotend
;*** End Preheating ***

G92 E0 ;Reset Extruder
G1 Z2.0 F3000 ;Move Z Axis up
G1 X10.1 Y20 Z0.28 F5000.0 ;Move to start position
G1 X10.1 Y200.0 Z0.28 F1500.0 E15 ;Draw the first line
G1 X10.4 Y200.0 Z0.28 F5000.0 ;Move to side a little
G1 X10.4 Y20 Z0.28 F1500.0 E30 ;Draw the second line
G92 E0 ;Reset Extruder
G1 Z2.0 F3000 ;Move Z Axis up

​
;*** Single Start Tone
M300 S1000 P500 ; chirp to indicate starting to print
;*** End Single Start Tone
G92 E0
G92 E0
G1 F1500 E-6
;LAYER_COUNT:15
;LAYER:0
M107
M204 S500
M205 X20 Y20
;MESH:test_hole.stl
G0 F7500 X109.13 Y112.509 Z0.2
;TYPE:WALL-INNER
G1 F1500 E0
G1 X109.622 Y112.628 E0.01684
G1 X110.129 Y112.651 E0.03372
G1 X110.626 Y112.578 E0.05042
G1 X111.1 Y112.416 E0.06708
G1 X111.539 Y112.163 E0.08394
G1 X111.92 Y111.834 E0.10068
G1 X112.233 Y111.436 E0.11752
G1 X112.465 Y110.986 E0.13436
G1 X112.607 Y110.502 E0.15114
G1 X112.655 Y110 E0.16791
G1 X112.607 Y109.498 E0.18468
G1 X112.465 Y109.014 E0.20146
G1 X112.233 Y108.564 E0.2183
G1 X111.92 Y108.166 E0.23514
G1 X111.539 Y107.837 E0.25188
G1 X111.1 Y107.584 E0.26873
G1 X110.626 Y107.422 E0.28539
G1 X110.129 Y107.349 E0.3021
G1 X109.622 Y107.372 E0.31898
G1 X109.13 Y107.491 E0.33582
G1 X108.673 Y107.701 E0.35255
G1 X108.261 Y107.993 E0.36934
G1 X107.913 Y108.36 E0.38616
G1 X107.64 Y108.784 E0.40294
G1 X107.452 Y109.252 E0.41971
G1 X107.357 Y109.748 E0.43651
G1 X107.357 Y110.252 E0.45327
G1 X107.452 Y110.748 E0.47007
G1 X107.64 Y111.216 E0.48684
G1 X107.913 Y111.64 E0.50361
G1 X108.261 Y112.007 E0.52044
G1 X108.43 Y112.127 E0.52733
G0 F1350 X108.673 Y112.299
G0 X109.13 Y112.509
G0 F7500 X109.262 Y112.129
G1 F1500 X109.679 Y112.23 E0.5416
G1 X110.109 Y112.25 E0.55592
G1 X110.531 Y112.188 E0.5701
G1 X110.934 Y112.05 E0.58427
G1 X111.306 Y111.835 E0.59856
G1 X111.63 Y111.556 E0.61278
G1 X111.895 Y111.219 E0.62704
G1 X112.092 Y110.837 E0.64134
G1 X112.212 Y110.426 E0.65558
G1 X112.253 Y110 E0.66981
G1 X112.212 Y109.574 E0.68405
G1 X112.092 Y109.163 E0.69829
G1 X111.895 Y108.781 E0.71258
G1 X111.63 Y108.444 E0.72684
G1 X111.306 Y108.165 E0.74106
G1 X110.934 Y107.95 E0.75535
G1 X110.531 Y107.812 E0.76952
G1 X110.109 Y107.75 E0.78371
G1 X109.679 Y107.77 E0.79803
G1 X109.262 Y107.871 E0.8123
G1 X108.874 Y108.049 E0.82649
G1 X108.524 Y108.297 E0.84076
G1 X108.229 Y108.608 E0.85502
G1 X107.997 Y108.968 E0.86926
G1 X107.838 Y109.365 E0.88349
G1 X107.757 Y109.786 E0.89775
G1 X107.757 Y110.214 E0.91198
G1 X107.838 Y110.635 E0.92624
G1 X107.997 Y111.032 E0.94046
G1 X108.229 Y111.392 E0.95471
G1 X108.524 Y111.703 E0.96897
G1 X108.569 Y111.735 E0.9708
G0 F1350 X108.874 Y111.951
G0 X109.262 Y112.129
G0 F7500 X109.394 Y111.749
;TYPE:WALL-OUTER
G1 F1500 X109.736 Y111.832 E0.98192
G1 X110.089 Y111.849 E0.99309
G1 X110.436 Y111.798 E1.00417
G1 X110.768 Y111.684 E1.01526
G1 X111.073 Y111.508 E1.02639
G1 X111.339 Y111.278 E1.0375
G1 X111.557 Y111.001 E1.04864
G1 X111.719 Y110.688 E1.05977
G1 X111.817 Y110.35 E1.07089
G1 X111.851 Y110 E1.08201
G1 X111.817 Y109.65 E1.09312
G1 X111.719 Y109.312 E1.10424
G1 X111.557 Y108.999 E1.11537
G1 X111.339 Y108.722 E1.12651
G1 X111.073 Y108.492 E1.13762
G1 X110.768 Y108.316 E1.14875
G1 X110.436 Y108.202 E1.15984
G1 X110.089 Y108.151 E1.17092
G1 X109.736 Y108.168 E1.18209
G1 X109.394 Y108.251 E1.19321
G1 X109.075 Y108.397 E1.20429
G1 X108.787 Y108.601 E1.21544
G1 X108.545 Y108.856 E1.22655
G1 X108.354 Y109.152 E1.23768
G1 X108.224 Y109.478 E1.24877
G1 X108.157 Y109.824 E1.25991
G1 X108.157 Y110.176 E1.27103
G1 X108.224 Y110.522 E1.28217
G1 X108.354 Y110.848 E1.29326
G1 X108.545 Y111.144 E1.30439
G1 X108.72 Y111.328 E1.31241
G0 F1350 X108.787 Y111.399
G0 X109.075 Y111.603
G0 X109.394 Y111.749
G0 F7500 X109.736 Y111.832
G0 X109.785 Y111.834
G0 X109.764 Y112.274
G1 F1500 E-4.68759
G0 F7500 X114 Y106
;TYPE:WALL-INNER
G1 F1500 E1.31241
G1 X114 Y114 E1.57849
G1 X106 Y114 E1.84457
G1 X106 Y106 E2.11065
G1 X113.2 Y106 E2.35013
G0 F1350 X114 Y106
G0 F7500 X114.4 Y105.6
G1 F1500 X114.4 Y114.4 E2.64282
G1 X105.6 Y114.4 E2.9355
G1 X105.6 Y105.6 E3.22819
G1 X113.6 Y105.6 E3.49428
G0 F1350 X114.4 Y105.6
G0 F7500 X114.8 Y105.2
;TYPE:WALL-OUTER
G1 F1500 X114.8 Y114.8 E3.79761
G1 X105.2 Y114.8 E4.10094
G1 X105.2 Y105.2 E4.40427
G1 X114 Y105.2 E4.68233
G0 F1350 X114.8 Y105.2
G0 F7500 X114.8 Y105.6
G0 X114.36 Y105.64
G0 X113.61 Y106.39
;TYPE:SKIN
G1 F1500 X113.61 Y113.61 E4.92247
G1 X106.39 Y113.61 E5.1626
G1 X106.39 Y106.39 E5.40274
G1 X112.81 Y106.39 E5.61627
G0 F1350 X113.61 Y106.39
G1 F1500 E-0.38373
G0 F7500 X112.203 Y107.895
G1 F1500 E5.61627
G1 X111.766 Y107.517 E5.63549
G1 X111.262 Y107.227 E5.65483
G1 X110.718 Y107.042 E5.67394
G1 X110.149 Y106.957 E5.69308
G1 X109.567 Y106.984 E5.71245
G1 X109.001 Y107.121 E5.73182
G1 X108.478 Y107.362 E5.75098
G1 X108.004 Y107.697 E5.77028
G1 X107.605 Y108.118 E5.78957
G1 X107.292 Y108.604 E5.8088
G1 X107.076 Y109.141 E5.82805
G1 X106.967 Y109.711 E5.84735
G1 X106.967 Y110.289 E5.86658
G1 X107.076 Y110.859 E5.88588
G1 X107.292 Y111.396 E5.90513
G1 X107.605 Y111.882 E5.92436
G1 X108.004 Y112.303 E5.94365
G1 X108.478 Y112.638 E5.96295
G1 X109.001 Y112.879 E5.98211
G1 X109.567 Y113.016 E6.00148
G1 X110.149 Y113.043 E6.02085
G1 X110.718 Y112.958 E6.03999
G1 X111.262 Y112.773 E6.0591
G1 X111.766 Y112.483 E6.07844
G1 X112.203 Y112.105 E6.09766
G1 X112.562 Y111.648 E6.11699
G1 X112.829 Y111.132 E6.13631
G1 X112.991 Y110.576 E6.15557
G1 X113.047 Y110 E6.17482
G1 X112.991 Y109.424 E6.19407
G1 X112.829 Y108.868 E6.21333
G1 X112.662 Y108.546 E6.2254
G0 F1350 X112.562 Y108.352
G0 X112.203 Y107.895
G0 F7500 X112.85 Y107.489
G1 F1500 X112.755 Y107.368 E6.23051
G1 X112.503 Y107.15 E6.24159
G1 X112.85 Y107.15 E6.25314
G1 X112.85 Y107.414 E6.26192
G0 F1350 X112.85 Y107.489
G0 F7500 X112.464 Y107.645
G1 F1500 X111.975 Y107.222 E6.28342
G1 X111.411 Y106.898 E6.30505
G1 X110.976 Y106.75 E6.32034
G1 X113.25 Y106.75 E6.39597
G1 X113.25 Y109.026 E6.47167
G1 X113.165 Y108.733 E6.48182
G1 X112.866 Y108.156 E6.50343
G1 X112.796 Y108.067 E6.5072
G0 F1350 X112.464 Y107.645
G1 F1500 E0.5072
G0 F7500 X113.25 Y110.974
G1 F1500 E6.5072
G1 X113.25 Y113.25 E6.5829
G1 X110.976 Y113.25 E6.65853
G1 X111.411 Y113.102 E6.67382
G1 X111.975 Y112.778 E6.69545
G1 X112.464 Y112.355 E6.71695
G1 X112.866 Y111.844 E6.73858
G1 X113.114 Y111.366 E6.75649
G0 F1350 X113.165 Y111.267
G0 X113.25 Y110.974
G1 F1500 E0.75649
G0 F7500 X112.85 Y112.511
G1 F1500 E6.75649
G1 X112.85 Y112.85 E6.76776
G1 X112.503 Y112.85 E6.77931
G1 X112.755 Y112.632 E6.79039
G1 X112.813 Y112.559 E6.79349
G0 F1350 X112.85 Y112.511
G1 F1500 E0.79349
G0 F7500 X109.002 Y113.25
G1 F1500 E6.79349
G1 X106.75 Y113.25 E6.86839
G1 X106.75 Y111.013 E6.94279
G1 X106.971 Y111.562 E6.96248
G1 X107.321 Y112.105 E6.98396
G1 X107.767 Y112.577 E7.00556
G1 X108.298 Y112.951 E7.02717
G1 X108.622 Y113.101 E7.03904
G0 F1350 X108.882 Y113.221
G0 X109.002 Y113.25
G1 F1500 E1.03904
G0 F7500 X107.475 Y112.85
G1 F1500 E7.03904
G1 X107.15 Y112.85 E7.04985
G1 X107.15 Y112.506 E7.06129
G1 X107.434 Y112.807 E7.07506
G0 F1350 X107.475 Y112.85
G1 F1500 E1.07506
G0 F7500 X107.475 Y107.15
G1 F1500 E7.07506
G1 X107.15 Y107.494 E7.0908
G1 X107.15 Y107.15 E7.10224
G1 X107.426 Y107.15 E7.11142
G0 F1350 X107.475 Y107.15
G1 F1500 E1.11142
G0 F7500 X109.002 Y106.75
G1 F1500 E7.11142
G1 X108.882 Y106.779 E7.11552
G1 X108.298 Y107.049 E7.13692
G1 X107.767 Y107.423 E7.15853
G1 X107.321 Y107.895 E7.18012
G1 X106.971 Y108.438 E7.20161
G1 X106.75 Y108.987 E7.22129
G1 X106.75 Y106.75 E7.2957
G1 X108.435 Y106.75 E7.35174
G0 F1350 X109.002 Y106.75
G0 F7500 X109.162 Y106.616
;TYPE:SKIN
G1 F1500 X109.403 Y106.857 E7.35741
G0 F7500 X109.648 Y106.819
G1 F1500 X109.378 Y106.55 E7.36375
G0 F7500 X109.661 Y106.55
G1 F1500 X109.917 Y106.806 E7.36977
G0 F7500 X109.944 Y106.55
G1 F1500 X110.195 Y106.801 E7.37567
G0 F7500 X110.227 Y106.55
G1 F1500 X110.528 Y106.851 E7.38275
G0 F7500 X110.785 Y106.826
G1 F1500 X110.51 Y106.55 E7.38923
G0 F7500 X110.793 Y106.55
G1 F1500 X110.826 Y106.583 E7.39001
G0 F7500 X112.016 Y106.925
G1 F1500 X112.306 Y107.215 E7.39683
G0 F7500 X112.384 Y107.01
G1 F1500 X112.299 Y106.925 E7.39882
G0 F7500 X112.776 Y107.685
G1 F1500 X113.074 Y107.982 E7.40582
G0 F7500 X113.074 Y107.7
G1 F1500 X112.985 Y107.611 E7.40791
G1 F1500 E1.40791
G0 F7500 X113.173 Y109.214
G1 F1500 E7.40791
G1 X113.449 Y109.489 E7.41439
G0 F7500 X113.449 Y109.772
G1 F1500 X113.156 Y109.479 E7.42128
G0 F7500 X113.186 Y109.792
G1 F1500 X113.449 Y110.055 E7.42747
G0 F7500 X113.197 Y110.086
G1 F1500 X113.449 Y110.338 E7.4334
G0 F7500 X113.172 Y110.344
G1 F1500 X113.449 Y110.621 E7.43991
G0 F7500 X113.356 Y110.811
G1 F1500 X113.147 Y110.602 E7.44483
G0 F7500 X112.913 Y112.065
G1 F1500 X113.074 Y112.226 E7.44861
G0 F7500 X112.937 Y112.371
G1 F1500 X112.788 Y112.222 E7.45212
G0 F7500 X112.226 Y112.792
G1 F1500 X112.361 Y112.927 E7.45529
G0 F7500 X112.225 Y113.074
G1 F1500 X112.074 Y112.922 E7.45886
G0 F7500 X110.817 Y113.363
G1 F1500 X110.592 Y113.138 E7.46415
G0 F7500 X110.346 Y113.175
G1 F1500 X110.621 Y113.449 E7.4706
G0 F7500 X110.338 Y113.449
G1 F1500 X110.088 Y113.2 E7.47647
G0 F7500 X110.055 Y113.449
G1 F1500 X109.791 Y113.185 E7.48268
G0 F7500 X109.772 Y113.449
G1 F1500 X109.482 Y113.159 E7.4895
G0 F7500 X109.489 Y113.449
G1 F1500 X109.19 Y113.149 E7.49654
G0 F7500 X109.159 Y113.402
G1 F1500 X109.206 Y113.449 E7.49765
G0 F7500 X107.982 Y113.074
G1 F1500 X107.661 Y112.752 E7.50521
G0 F7500 X107.596 Y112.97
G1 F1500 X107.7 Y113.074 E7.50766
G0 F7500 X107.215 Y112.306
G1 F1500 X106.925 Y112.016 E7.51448
G0 F7500 X106.925 Y112.299
G1 F1500 X107.012 Y112.386 E7.51652
G1 F1500 E1.51652
G0 F7500 X106.616 Y110.859
G1 F1500 E7.51652
G1 X106.549 Y110.792 E7.5181
G0 F7500 X106.549 Y110.509
G1 F1500 X106.853 Y110.813 E7.52525
G0 F7500 X106.849 Y110.526
G1 F1500 X106.549 Y110.226 E7.5323
G0 F7500 X106.807 Y110.201
G1 F1500 X106.549 Y109.943 E7.53837
G0 F7500 X106.807 Y109.918
G1 F1500 X106.549 Y109.66 E7.54444
G0 F7500 X106.816 Y109.645
G1 F1500 X106.549 Y109.378 E7.55072
G0 F7500 X106.587 Y109.132
G1 F1500 X106.862 Y109.407 E7.55719
G0 F7500 X106.959 Y108.09
G1 F1500 X106.924 Y108.055 E7.55801
G0 F7500 X107.087 Y107.935
G1 F1500 X106.924 Y107.772 E7.56184
G0 F7500 X107.067 Y107.632
G1 F1500 X107.201 Y107.767 E7.56501
G0 F7500 X107.77 Y107.205
G1 F1500 X107.597 Y107.031 E7.56909
G0 F7500 X107.773 Y106.925
M104 S205
G1 F1500 X107.937 Y107.088 E7.57293
G1 F1500 E1.57293
;MESH:NONMESH
G0 F300 X107.937 Y107.088 Z0.4
G0 F7500 X112.655 Y110
;TIME_ELAPSED:23.796193
;LAYER:1
M140 S60
M106 S255
;TYPE:WALL-INNER
;MESH:test_hole.stl
G1 F1500 E7.57293
G1 F2102.5 X112.607 Y109.498 E7.5897
G1 X112.465 Y109.014 E7.60648
G1 X112.233 Y108.564 E7.62332
G1 X111.92 Y108.166 E7.64016
G1 X111.539 Y107.837 E7.6569
G1 X111.1 Y107.584 E7.67376
G1 X110.626 Y107.422 E7.69042
G1 X110.129 Y107.349 E7.70712
G1 X109.622 Y107.372 E7.724
G1 X109.13 Y107.491 E7.74084
G1 X108.673 Y107.701 E7.75757
G1 X108.261 Y107.993 E7.77436
G1 X107.913 Y108.36 E7.79119
G1 X107.64 Y108.784 E7.80796
G1 X107.452 Y109.252 E7.82473
G1 X107.357 Y109.748 E7.84153
G1 X107.357 Y110.252 E7.85829
G1 X107.452 Y110.748 E7.87509
G1 X107.64 Y111.216 E7.89186
G1 X107.913 Y111.64 E7.90864
G1 X108.261 Y112.007 E7.92546
G1 X108.673 Y112.299 E7.94225
G1 X109.13 Y112.509 E7.95898
G1 X109.622 Y112.628 E7.97582
G1 X110.129 Y112.651 E7.9927
G1 X110.626 Y112.578 E8.00941
G1 X111.1 Y112.416 E8.02607
G1 X111.539 Y112.163 E8.04292
G1 X111.92 Y111.834 E8.05966
G1 X112.233 Y111.436 E8.0765
G1 X112.465 Y110.986 E8.09334
G1 X112.524 Y110.786 E8.10028
G0 F1892.3 X112.607 Y110.502
G0 X112.655 Y110
G0 F8250 X112.253 Y110
G1 F2102.5 X112.212 Y109.574 E8.11451
G1 X112.092 Y109.163 E8.12875
G1 X111.895 Y108.781 E8.14305
G1 X111.63 Y108.444 E8.15731
G1 X111.306 Y108.165 E8.17153
G1 X110.934 Y107.95 E8.18582
G1 X110.531 Y107.812 E8.19999
G1 X110.109 Y107.75 E8.21417
G1 X109.679 Y107.77 E8.22849
G1 X109.262 Y107.871 E8.24276
G1 X108.874 Y108.049 E8.25696
G1 X108.524 Y108.297 E8.27123
G1 X108.229 Y108.608 E8.28548
G1 X107.997 Y108.968 E8.29973
G1 X107.838 Y109.365 E8.31395
G1 X107.757 Y109.786 E8.32821
G1 X107.757 Y110.214 E8.34245
G1 X107.838 Y110.635 E8.35671
G1 X107.997 Y111.032 E8.37093
G1 X108.229 Y111.392 E8.38517
G1 X108.524 Y111.703 E8.39943
G1 X108.874 Y111.951 E8.4137
G1 X109.262 Y112.129 E8.4279
G1 X109.679 Y112.23 E8.44217
G1 X110.109 Y112.25 E8.45648
G1 X110.531 Y112.188 E8.47067
G1 X110.934 Y112.05 E8.48484
G1 X111.306 Y111.835 E8.49913
G1 X111.63 Y111.556 E8.51335
G1 X111.895 Y111.219 E8.52761
G1 X112.092 Y110.837 E8.54191
G1 X112.108 Y110.784 E8.54375
G0 F1892.3 X112.212 Y110.426
G0 X112.253 Y110
G0 F8250 X111.851 Y110
;TYPE:WALL-OUTER
G1 F1401.7 X111.817 Y109.65 E8.55486
G1 X111.719 Y109.312 E8.56598
G1 X111.557 Y108.999 E8.57711
G1 X111.339 Y108.722 E8.58825
G1 X111.073 Y108.492 E8.59936
G1 X110.768 Y108.316 E8.61049
G1 X110.436 Y108.202 E8.62158
G1 X110.089 Y108.151 E8.63266
G1 X109.736 Y108.168 E8.64383
G1 X109.394 Y108.251 E8.65495
G1 X109.075 Y108.397 E8.66603
G1 X108.787 Y108.601 E8.67719
G1 X108.545 Y108.856 E8.68829
G1 X108.354 Y109.152 E8.69942
G1 X108.224 Y109.478 E8.71051
G1 X108.157 Y109.824 E8.72165
G1 X108.157 Y110.176 E8.73277
G1 X108.224 Y110.522 E8.74391
G1 X108.354 Y110.848 E8.755
G1 X108.545 Y111.144 E8.76613
G1 X108.787 Y111.399 E8.77724
G1 X109.075 Y111.603 E8.78839
G1 X109.394 Y111.749 E8.79947
G1 X109.736 Y111.832 E8.81059
G1 X110.089 Y111.849 E8.82176
G1 X110.436 Y111.798 E8.83284
G1 X110.768 Y111.684 E8.84393
G1 X111.073 Y111.508 E8.85506
G1 X111.339 Y111.278 E8.86617
G1 X111.557 Y111.001 E8.87731
G1 X111.674 Y110.775 E8.88535
G0 F1261.5 X111.719 Y110.688
G0 X111.817 Y110.35
G0 X111.851 Y110
G0 F8250 X111.817 Y109.65
G0 X111.804 Y109.603
G0 X112.227 Y109.482
G1 F1500 E2.88535
G0 F8250 X106 Y114
;TYPE:WALL-INNER
G1 F1500 E8.88535
G1 F2102.5 X106 Y106 E9.15143
G1 X114 Y106 E9.41751
G1 X114 Y114 E9.68359
G1 X106.8 Y114 E9.92307
G0 F1892.3 X106 Y114
G0 F8250 X105.6 Y114.4
G1 F2102.5 X105.6 Y105.6 E10.21575
G1 X114.4 Y105.6 E10.50844
G1 X114.4 Y114.4 E10.80113
G1 X106.4 Y114.4 E11.06721
G0 F1892.3 X105.6 Y114.4
G0 F8250 X105.2 Y114.8
;TYPE:WALL-OUTER
G1 F1401.7 X105.2 Y105.2 E11.37055
G1 X114.8 Y105.2 E11.67388
G1 X114.8 Y114.8 E11.97721
G1 X106 Y114.8 E12.25527
G0 F1261.5 X105.2 Y114.8
G0 F8250 X105.2 Y114.4
G0 X105.64 Y114.36
G0 X106.39 Y113.61
;TYPE:SKIN
G1 F1401.7 X106.39 Y106.39 E12.4954
G1 X113.61 Y106.39 E12.73554
G1 X113.61 Y113.61 E12.97568
G1 X107.19 Y113.61 E13.18921
G0 F1261.5 X106.39 Y113.61
G1 F1500 E7.18921
G0 F8250 X108.004 Y112.303
G1 F1500 E13.18921
G1 F1401.7 X108.478 Y112.638 E13.20852
G1 X109.001 Y112.879 E13.22767
G1 X109.567 Y113.016 E13.24704
G1 X110.149 Y113.043 E13.26642
G1 X110.718 Y112.958 E13.28555
G1 X111.262 Y112.773 E13.30466
G1 X111.766 Y112.483 E13.324
G1 X112.203 Y112.105 E13.34322
G1 X112.562 Y111.648 E13.36255
G1 X112.829 Y111.132 E13.38187
G1 X112.991 Y110.576 E13.40113
G1 X113.047 Y110 E13.42038
G1 X112.991 Y109.424 E13.43963
G1 X112.829 Y108.868 E13.45889
G1 X112.562 Y108.352 E13.47822
G1 X112.203 Y107.895 E13.49754
G1 X111.766 Y107.517 E13.51676
G1 X111.262 Y107.227 E13.5361
G1 X110.718 Y107.042 E13.55521
G1 X110.149 Y106.957 E13.57435
G1 X109.567 Y106.984 E13.59373
G1 X109.001 Y107.121 E13.6131
G1 X108.478 Y107.362 E13.63225
G1 X108.004 Y107.697 E13.65155
G1 X107.605 Y108.118 E13.67085
G1 X107.292 Y108.604 E13.69007
G1 X107.076 Y109.141 E13.70932
